Adwaita++/status/16/call-missed.svg

<svg height="16.013" width="16.006" xmlns="http://www.w3.org/2000/svg">
  <path d="m12.98 0a1 1 0 0 0 -.11.01h-4.87v.832a1 1 0 0 0 1 1.168h1.586l-2.586 2.586-2.293-2.293a1 1 0 1 0 -1.414 1.414l3 3a1 1 0 0 0 1.414 0l3.293-3.293v1.586a1 1 0 0 0 1.158 1h.842v-4.873a1 1 0 0 0 0-.275v-.852h-.854a1 1 0 0 0 -.166-.01z" fill="#474747"/>
  <path class="error" d="m14.242 15.725a.979.979 0 0 1 -1.387 0l-1.04-1.04-1.041-1.04a.979.979 0 0 1 0-1.387l.493-.493a6.838 6.838 0 0 0 -6.534 0l.493.493a.979.979 0 0 1 0 1.387l-1.04 1.04-1.04 1.04a.979.979 0 0 1 -1.388 0l-1.04-1.04a2.452 2.452 0 0 1 0-3.468l.347-.346c3.818-3.818 10.052-3.818 13.87 0l.347.346a2.452 2.452 0 0 1 0 3.468z" fill="#e01b24"/>
</svg>

<svg xmlns="http://www.w3.org/2000/svg" width="16.006" height="16.013">
    <path d="M12.98 0a1 1 0 0 0-.11.01H8v.832A1 1 0 0 0 9 2.01h1.586L8 4.596 5.707 2.303a1 1 0 1 0-1.414 1.414l3 3a1 1 0 0 0 1.414 0L12 3.424V5.01a1 1 0 0 0 1.158 1H14V1.137a1 1 0 0 0 0-.275V.01h-.854A1 1 0 0 0 12.98 0z" style="line-height:normal;font-variant-ligatures:normal;font-variant-position:normal;font-variant-caps:normal;font-variant-numeric:normal;font-variant-alternates:normal;font-feature-settings:normal;text-indent:0;text-align:start;text-decoration-line:none;text-decoration-style:solid;text-decoration-color:#000;text-transform:none;text-orientation:mixed;shape-padding:0;isolation:auto;mix-blend-mode:normal;marker:none" color="#000" font-weight="400" font-family="sans-serif" white-space="normal" overflow="visible" fill="#474747"/>
    <path class="error" d="M14.242 15.725a.979.979 0 0 1-1.387 0l-1.04-1.04-1.041-1.04a.979.979 0 0 1 0-1.387l.493-.493a6.838 6.838 0 0 0-6.534 0l.493.493a.979.979 0 0 1 0 1.387l-1.04 1.04-1.04 1.04a.979.979 0 0 1-1.388 0l-1.04-1.04a2.452 2.452 0 0 1 0-3.468l.347-.346c3.818-3.818 10.052-3.818 13.87 0l.347.346a2.452 2.452 0 0 1 0 3.468z" style="line-height:normal;font-variant-ligatures:normal;font-variant-position:normal;font-variant-caps:normal;font-variant-numeric:normal;font-variant-alternates:normal;font-feature-settings:normal;text-indent:0;text-align:start;text-decoration-line:none;text-decoration-style:solid;text-decoration-color:#000;text-transform:none;text-orientation:mixed;shape-padding:0;isolation:auto;mix-blend-mode:normal;marker:none" color="#000" font-weight="400" font-family="sans-serif" white-space="normal" overflow="visible" fill="#e01b24"/>
</svg>
